X:1705
T:The Gentle Shepherd
%
P:The Gentle Shepherd
C:Joshua Campbell
R:Jig (8x32) Slow 6/8 time
B:RSCDS 17-5(I)
Z:Anselm Lingnau <anselm@strathspey.org>
M:6/8
L:1/8
K:G
B/c/ |\
"G"dBG Bge | dBG Bge | dBG dBG | "D"AAA A2B/c/ | 
"G"dBG Bge | dBG Bge | dBG "D"cAF | "G"GGG G2 || 
B,/C/ |\
"G"DB,D "C"ECE | "D"FDA "G"B2G | "D"DB,D "C"ECE | "D"FDd "G"B2G | 
"G"DB,D "C"ECE | "D"FDA "G"B2G | dBd "Am"ece | "D"fdb "G"g2 |] 
%
P: Miss Jamieson's Favorite
M: 6/8
L: 1/8
R: air, jig
B: RSCDS 17-5(II)
C: C. Grant
Z: Betsy Hooper
K: A
"A"E>AB c2E | "D"F2E FA2 | "A"E>Ac "F#m"e2f | "D"e2c "B"B2c |
"A"E>AB c2E | "D"F2E FA2 | "A"EAB "F#m"c<ef | "E"c2B "A"A3 ||
"A"e2A "D"f2A | "A"e2E "D"F A2 | "A"e2A "F#m"f2A | "D"a2c "E"B2c |
"A"e>AA ABc | "D"F2E "Bm"F A2 | "A"EAB "F#m"c<ef | "E"c2B "A"A3 |] 
